X:109
T:Per noun langui long dou camin
C:Trad.
C:Paraulo de Micoulau Saboly
C:
O:France
R:Nol
A:Provence
M:6/8
L:1/8
Q:3/8=80
K:F
(d^cd | A2A f2f | e3 def | d2e d2^c |
!breath!d3) (d^cd | A2A f2f | e3 def | d2e (d2^c) |
!breath!d3) (=ccc | f2c c2c | A2A d2c | B2A G3 |
!breath!A3) (ABG | A3) (ABG | A2)(A d2f | e2d d2^c |
!breath!d3) (ABG | A3) (ABG | A2)(A d2f | e2d d2^c | d3) |]
%%begintext
